!!!SOCIAL_FUNCTION:	war songs
!!!PDT:	1922
!!!OTL: No_71_Scout_Song.krn
!!!REG: Southwest
!!!LANG: Non-Tone
!!!LING_GROUP: Uto-Aztecan
**kern
*staff1
*clefF4
*k[f#c#g#d#a#]
*M2/4
12d#\L
12d#\
12d#\J
=1
4f#\
4d#\
=2
4.G#\
8G#\
=3||
*M3/4
8.d#\L
16B\Jk
16B\LK
8.B\J
4G#\
=4||
*M2/4
16D#\LK
8.D#\J
4D#\
=5||
*M3/4
16D#\LK
[8.D#\J
4D#\]
12d#\L
12d#\
12d#\J
=6||
*M2/4
4f#\
4d#\
=7
4G#\
8.d#\L
16G#\Jk
=8||
*M3/4
4G#\
4D#\
8.D#\L
16D#\Jk
=9
8.d#\L
16G#\Jk
8G#\L
[8G#\J
8.G#\L]
16G#\Jk
=10||
*M2/4
8.d#\L
16G#\Jk
8G#\L
8G#\J
=11
12D#\L
12D#\
12D#\J
4D#\
=12
12D#\L
12D#\
12D#\J
4D#\
==
*-
